projects/ccf-eui/src/assets/icons/organ-icons/organ-icon-trachea.svg

<svg width="64" height="64" viewBox="0 0 64 64" fill="currentColor" xmlns="http://www.w3.org/2000/svg">
<g clip-path="url(#clip0_1795_497)">
<g clip-path="url(#clip1_1795_497)">
<path d="M35.2307 37.2093C36.7015 36.7047 38.341 36.0318 38.8955 34.8543C39.1607 34.3256 39.1607 33.7248 38.9196 33.124C38.2927 31.4899 36.0987 32.307 33.7841 33.1481C32.3857 33.6527 30.9391 34.2054 29.9024 34.2054H29.6613C27.0333 34.2054 25.8277 33.7488 24.7187 32.4031L24.2847 31.8744L23.8507 32.4031C23.0792 33.3163 22.6693 34.3736 22.6693 35.455C22.6693 38.7473 26.3341 41.4147 30.8186 41.4147C32.8438 41.4147 37.7382 41.2465 39.1366 39.5643C39.4741 39.1798 39.5947 38.7233 39.5224 38.2426C39.2571 36.7527 37.1354 36.945 35.2307 37.2093Z" />
<path d="M37.7624 24.0403L37.3284 23.5597L36.8944 24.0403C35.6648 25.4341 33.3261 26.3233 30.8186 26.3233C28.3112 26.3233 25.9966 25.4581 24.7428 24.0403L24.3089 23.5597L23.8749 24.0403C23.0792 24.9295 22.6935 25.8907 22.6935 26.876C22.6935 29.9039 26.3341 32.3791 30.8186 32.3791C35.3031 32.3791 38.9438 29.9039 38.9438 26.876C38.9438 25.8907 38.5339 24.9295 37.7624 24.0403Z" />
<path d="M37.2319 -0.543411L36.8461 -1L36.4604 -0.543411C35.3272 0.754264 33.1573 1.54729 30.8427 1.54729C28.5281 1.54729 26.4064 0.730233 25.225 -0.567442L24.8393 -1L24.4535 -0.543411C23.7302 0.273643 23.3685 1.18682 23.3685 2.07597C23.3685 4.8876 26.7198 7.17054 30.8668 7.17054C35.0138 7.17054 38.3651 4.8876 38.3651 2.07597C38.3651 1.16279 37.9793 0.273643 37.2801 -0.543411H37.2319Z" />
<path d="M37.0873 16.3504L36.6774 15.8217L36.2675 16.3504C35.1102 17.8163 32.9644 18.7054 30.698 18.7054H30.6498C28.3594 18.7054 26.2135 17.7923 25.0804 16.3504L24.6705 15.8217L24.2606 16.3264C23.5614 17.1915 23.1757 18.2008 23.1757 19.2101C23.1757 22.5504 26.2618 24.8574 30.6739 24.8574C35.0861 24.8574 38.1722 22.5264 38.1722 19.2101C38.1722 18.2248 37.8106 17.2395 37.1114 16.3264L37.0873 16.3504Z" />
<path d="M40.2216 41.3907C39.7394 41.0543 39.2089 40.9101 38.7026 41.0062L38.5097 41.0783C37.907 41.4147 37.2319 42.1116 36.388 42.9767C34.8209 44.6109 32.651 46.8457 30.5052 46.8457C28.6728 46.8457 26.6475 44.683 25.1768 43.0969C23.8025 41.631 22.8863 40.6698 21.9942 41.0062C21.1504 41.3426 20.0654 42.1357 19.752 44.0822C19.5109 45.5 20.6923 46.1969 21.9219 46.9419C23.0792 47.6388 24.5258 48.4798 25.4179 50.1861C25.6349 50.6186 25.876 51.0992 26.1171 51.5798C27.4432 54.2954 28.938 57.3713 31.4213 57.3954H31.4455C33.8565 57.3954 34.8691 55.1364 36.0505 52.5171C36.3881 51.7721 36.7497 50.955 37.1596 50.162C38.2204 48.1194 39.3295 47.1341 40.1251 46.4372C40.969 45.6923 41.6923 45.0434 41.5235 43.7698C41.403 42.7845 40.8967 41.8473 40.1975 41.3426L40.2216 41.3907Z" />
<path d="M37.2802 7.57907L36.8703 7.09845L36.4604 7.57907C35.4478 8.80465 34.3387 9.23721 31.9518 9.26124H31.7107C30.7463 9.26124 29.4202 8.75659 28.1424 8.27597C26.0207 7.48295 24.0195 6.76202 23.4409 8.25194C23.2239 8.82868 23.2239 9.35736 23.465 9.86202C24.0437 11.0876 25.8278 11.6884 27.2744 12.169C27.3468 12.169 27.395 12.2171 27.4673 12.2411C27.3226 12.193 27.178 12.169 27.0333 12.1209C25.7073 11.7364 24.3089 11.3519 23.4891 11.9287C23.248 12.0969 22.9587 12.4093 22.8864 12.986C22.8381 13.4186 22.9828 13.8512 23.3203 14.2116C24.6705 15.7016 29.0586 15.8457 30.8668 15.8457C37.0391 15.8457 38.3169 12.8659 38.3169 10.3667C38.3169 9.3814 37.9552 8.42016 37.2319 7.57907H37.2802Z" />
<path d="M14.5924 61C15.8943 60.207 21.3915 56.9868 26.768 55.5209C25.8519 53.6465 24.4776 50.7628 23.7302 49.4651C23.1997 48.5519 22.0183 47.831 20.8852 47.2783C18.0401 50.3302 14.3754 52.3969 11.3857 53.4302C11.1687 53.9829 10.6383 55.6171 11.3857 57.6357C12.109 59.6302 13.9173 60.6876 14.6165 61H14.5924Z" />
<path d="M39.5947 44.4186C39.5947 44.4186 39.5947 44.4186 39.5706 44.3705L39.6188 44.4186H39.5947Z" />
<path d="M52.8312 53.7907C49.07 52.469 44.6096 50.0659 41.5235 46.8217C40.535 47.807 38.4133 50.0178 37.8346 51.4116C37.3524 52.5891 36.5086 54.2713 35.9781 55.3287C41.7164 56.5543 47.985 59.486 49.3352 60.1349C49.9139 59.8946 51.4328 59.1736 52.0838 58.1643C53.2893 56.2899 53 54.4636 52.8553 53.8147L52.8312 53.7907Z" />
<path d="M25.2009 41.3186C24.8633 41.4628 28.3834 45.2116 29.9988 45.5C31.6142 45.7884 33.5671 43.986 34.1699 43.4093C34.7726 42.8326 35.4959 42.4 35.1584 42.2558C34.4833 41.9674 32.3134 43.0488 29.9988 42.7124C27.6842 42.376 25.9724 40.9822 25.2009 41.3426V41.3186Z" />
</g>
</g>
<defs>
<clipPath id="clip0_1795_497">
<rect width="64" height="64" />
</clipPath>
<clipPath id="clip1_1795_497">
<rect width="42" height="62"  transform="translate(11 -1)"/>
</clipPath>
</defs>
</svg>

<svg xmlns="http://www.w3.org/2000/svg" width="64" height="64" fill="currentColor" viewBox="0 0 64 64">
  <g clip-path="url(#a)">
    <path d="M35.23 37.21c1.472-.505 3.111-1.178 3.666-2.356.265-.528.265-1.13.024-1.73-.627-1.634-2.821-.817-5.136.024-1.398.505-2.845 1.057-3.882 1.057h-.24c-2.629 0-3.834-.456-4.943-1.802l-.434-.529-.434.53c-.772.912-1.182 1.97-1.182 3.051 0 3.292 3.665 5.96 8.15 5.96 2.025 0 6.92-.169 8.318-1.85.337-.385.458-.842.385-1.322-.265-1.49-2.387-1.298-4.291-1.034"/>
    <path d="m37.762 24.04-.434-.48-.434.48c-1.23 1.394-3.568 2.283-6.075 2.283s-4.822-.865-6.076-2.283l-.434-.48-.434.48c-.796.89-1.181 1.85-1.181 2.836 0 3.028 3.64 5.503 8.125 5.503s8.125-2.475 8.125-5.503c0-.985-.41-1.947-1.182-2.836M37.232-.543 36.846-1l-.386.457c-1.133 1.297-3.303 2.09-5.617 2.09S26.406.73 25.225-.567L24.839-1l-.386.457c-.723.817-1.084 1.73-1.084 2.619 0 2.812 3.35 5.095 7.498 5.095s7.498-2.283 7.498-5.095c0-.913-.386-1.802-1.085-2.62z"/>
    <path d="m37.087 16.35-.41-.528-.41.528c-1.157 1.466-3.303 2.355-5.569 2.355h-.048c-2.29 0-4.436-.913-5.57-2.355l-.41-.528-.41.504c-.699.866-1.084 1.875-1.084 2.884 0 3.34 3.086 5.647 7.498 5.647s7.498-2.33 7.498-5.647c0-.985-.361-1.97-1.06-2.884zM40.222 41.39c-.483-.336-1.013-.48-1.52-.384l-.192.072c-.603.337-1.278 1.034-2.122 1.899-1.567 1.634-3.737 3.869-5.883 3.869-1.832 0-3.857-2.163-5.328-3.75-1.375-1.465-2.29-2.426-3.183-2.09-.844.337-1.929 1.13-2.242 3.076-.241 1.418.94 2.115 2.17 2.86 1.157.697 2.604 1.538 3.496 3.244l.7 1.394c1.325 2.715 2.82 5.791 5.303 5.815h.024c2.411 0 3.424-2.259 4.605-4.878.338-.745.7-1.562 1.11-2.355 1.06-2.043 2.17-3.028 2.965-3.725.844-.745 1.567-1.394 1.398-2.667-.12-.986-.626-1.923-1.326-2.427z"/>
    <path d="m37.28 7.58-.41-.482-.41.481c-1.012 1.226-2.121 1.658-4.508 1.682h-.241c-.965 0-2.29-.504-3.569-.985-2.121-.793-4.122-1.514-4.701-.024-.217.577-.217 1.105.024 1.61.579 1.226 2.363 1.826 3.81 2.307.072 0 .12.048.192.072-.144-.048-.289-.072-.434-.12-1.326-.385-2.724-.77-3.544-.192-.241.168-.53.48-.603 1.057-.048.433.097.865.434 1.226 1.35 1.49 5.739 1.634 7.547 1.634 6.172 0 7.45-2.98 7.45-5.48 0-.985-.362-1.946-1.085-2.787zM14.592 61c1.302-.793 6.8-4.013 12.176-5.48-.916-1.873-2.29-4.757-3.038-6.055-.53-.913-1.712-1.634-2.845-2.187-2.845 3.052-6.51 5.119-9.5 6.152-.216.553-.747 2.187 0 4.206.724 1.994 2.532 3.052 3.232 3.364zM39.595 44.419l-.024-.048.048.048zM52.831 53.79c-3.761-1.321-8.221-3.724-11.308-6.968-.988.985-3.11 3.196-3.688 4.59-.483 1.177-1.326 2.86-1.857 3.917 5.738 1.225 12.007 4.157 13.357 4.806.579-.24 2.098-.961 2.749-1.97a5.72 5.72 0 0 0 .771-4.35zM25.2 41.319c-.337.144 3.183 3.893 4.799 4.181 1.615.288 3.568-1.514 4.17-2.09.604-.577 1.327-1.01.99-1.154-.676-.289-2.846.793-5.16.456-2.315-.336-4.027-1.73-4.798-1.37z"/>
  </g>
  <defs>
    <clipPath id="a">
      <path d="M0 0h64v64H0z"/>
    </clipPath>
  </defs>
</svg>
